**kern	**kern	**dynam
*part1	*part1	*part1
*staff2	*staff1	*
*I"Piano	*	*
*clefF4	*clefG2	*
*k[b-e-a-d-]	*k[b-e-a-d-]	*
=1	=1	=1
(16E-LL	8ryy	p
16B-J	.	.
8d-J)	(16gLL	.
.	16b-JJ) 16ee-	.
(16EE-LL	8ryy	.
16E-J	.	.
8B-J)	(16gLL	.
.	16dd-JJ)	.
=	=	=
*	*^	*
2ryy	(16AA-LL<	4a- 4cc	<
.	16E-<	.	.
.	16c<	.	.
.	16e-JJ<	.	.
*	*v	*v	*
.	16a-LL	.
.	16cc	.
.	16ee-	.
.	16aa-JJ	.
=	=	=
!	!LO:TX:b:i:t=rit.	!
4D- 4A- 4f	4a-) 4dd- 4ff	[ p
4E- 4B- 4d-	4g 4b- 4ee-	.
=	=	=
[2AA-: [2E-: [2c:	[2e-;: [2a-: [2ee-:	.
=	=	=
!	!LO:TX:a:i:t=  rit.	!
4AA-] 4E-] 4c]	4e-] 4a-] 4ee-]	pp
*	*^	*
.	.	8f	.
4AA- 4E- 4B-	4g 4dd-	8e-L	.
.	.	8e-J	.
*	*v	*v	*
=	=	=
4AA- 4E- 4A-	4e- 4a- 4cc	.
4AAA-	4r	.
=	=	=
2A-:> 2e-:> 2a-:>	2cc; 2ee- 2aa- 2ccc	pp
==	==	==
*-	*-	*-
!!!system-decoration: {(s1,s2)}
!!!RDF**kern: > = above
!!!RDF**kern: < = below
